lib/images/logo_report.svg

<svg width="162" height="24" viewBox="0 0 162 24" fill="none" xmlns="http://www.w3.org/2000/svg">
<g clip-path="url(#clip0)">
<path d="M20.79 12.41C17.5778 16.8311 13.6426 20.6785 9.14998 23.79C8.24998 24.4 7.72999 23.56 8.26999 22.88C11.6707 18.6256 15.5798 14.8038 19.91 11.5C20.66 11 21.26 11.74 20.79 12.41ZM16.59 8.05998C17.15 7.27998 16.64 6.48998 15.71 7.14998C15.15 7.53998 6.34998 15.37 4.70998 17.07C3.10998 15.69 1.41998 14.25 1.01998 13.93C0.891169 13.8203 0.724188 13.7662 0.555541 13.7793C0.386894 13.7924 0.230298 13.8717 0.119984 14C0.0257874 14.1159 -0.0256348 14.2606 -0.0256348 14.41C-0.0256348 14.5593 0.0257874 14.7041 0.119984 14.82C1.30342 16.4805 2.59982 18.0576 3.99998 19.54C4.16752 19.7644 4.41634 19.9141 4.69303 19.9571C4.96973 20.0001 5.25226 19.9329 5.47998 19.77L5.61998 19.65C9.72396 16.236 13.4066 12.3453 16.59 8.05998ZM4.84998 11.06C7.54879 9.05874 10.0805 6.84144 12.42 4.42998C12.6239 4.22563 12.7385 3.9487 12.7385 3.65998C12.7385 3.37126 12.6239 3.09433 12.42 2.88998L12.36 2.83998C12.09 2.64998 9.46999 0.349979 9.17999 0.139979C8.57998 -0.280021 7.86999 0.309979 8.26999 1.02998C8.66998 1.74998 9.38999 2.88998 9.82998 3.57998C9.45998 3.90998 4.51998 9.49998 3.99998 10.19C3.47998 10.88 3.99998 11.71 4.87998 11.1L4.84998 11.06Z" fill="#FF6200"/>
<path d="M27.28 5.54993H30.15V11.3099L35.42 5.54993H38.88L33.58 11.1399L39.12 18.7199H35.68L31.68 13.1199L30.14 14.6999V18.6999H27.28V5.54993ZM45.87 5.45993H48.51L54.08 18.7199H51.08L49.9 15.7699H44.4L43.21 18.7199H40.29L45.87 5.45993ZM48.87 13.2099L47.15 8.93993L45.42 13.2099H48.87ZM55.6 12.2099C55.5881 11.3274 55.7502 10.4512 56.077 9.63135C56.4037 8.81148 56.8888 8.06402 57.5045 7.43163C58.1201 6.79925 58.8543 6.29434 59.6652 5.94574C60.476 5.59713 61.3475 5.41167 62.23 5.39993H62.42C63.3505 5.35037 64.2817 5.48472 65.1602 5.7953C66.0387 6.10587 66.8474 6.58658 67.54 7.20993L65.74 9.40993C64.8409 8.51018 63.622 8.0032 62.35 7.99993C61.3119 8.05178 60.3362 8.51179 59.6357 9.27975C58.9352 10.0477 58.5665 11.0614 58.61 12.0999C58.5442 13.1378 58.8925 14.1595 59.5785 14.9411C60.2645 15.7227 61.2324 16.2006 62.27 16.2699H62.55C63.5109 16.2984 64.4561 16.0219 65.25 15.4799V13.6299H62.37V11.1299H68V16.8499C66.467 18.207 64.4874 18.9511 62.44 18.9399C61.5805 18.9803 60.7214 18.8508 59.9118 18.559C59.1023 18.2672 58.3582 17.8187 57.7221 17.2393C57.086 16.6598 56.5702 15.9606 56.2044 15.1817C55.8386 14.4028 55.6298 13.5595 55.59 12.6999C55.58 12.5234 55.58 12.3465 55.59 12.1699L55.6 12.2099ZM76.15 5.45993H78.79L84.37 18.7199H81.37L80.18 15.7699H74.68L73.5 18.7199H70.58L76.15 5.45993ZM79.15 13.2099L77.43 8.93993L75.71 13.2099H79.15ZM87.3 5.54993H93.24C93.931 5.5064 94.6236 5.60263 95.2765 5.83286C95.9294 6.0631 96.5292 6.42262 97.04 6.88993C97.4157 7.29072 97.7074 7.7626 97.8981 8.2778C98.0887 8.79301 98.1744 9.34113 98.15 9.88993C98.2012 10.785 97.9568 11.6721 97.4545 12.4146C96.9522 13.1572 96.2198 13.7142 95.37 13.9999L98.55 18.6999H95.21L92.42 14.4999H90.17V18.7199H87.31L87.3 5.54993ZM93.07 11.9999C94.46 11.9999 95.26 11.2499 95.26 10.1399C95.26 8.89993 94.41 8.25993 93.01 8.25993H90.17V11.9999H93.07ZM101.81 5.59993H104.67V18.7199H101.81V5.59993Z" fill="#233241"/>
<path d="M111 6.11001C112.023 5.92291 113.06 5.83251 114.1 5.84001C115.383 5.70695 116.669 6.06419 117.7 6.84001C118.026 7.14126 118.283 7.50847 118.456 7.91715C118.628 8.32583 118.711 8.76658 118.7 9.21001C118.707 9.92223 118.481 10.6173 118.057 11.1894C117.633 11.7616 117.033 12.1797 116.35 12.38C116.861 12.6138 117.3 12.98 117.622 13.4407C117.944 13.9014 118.136 14.4398 118.18 15C118.412 16.1671 118.747 17.3115 119.18 18.42H117.51C117.14 17.449 116.865 16.4443 116.69 15.42C116.32 13.71 115.69 13.05 114.19 13H112.67V18.4H111V6.11001ZM112.61 11.78H114.25C115.97 11.78 117.07 10.84 117.07 9.41001C117.07 7.79001 115.9 7.09001 114.2 7.09001C113.666 7.0759 113.133 7.12287 112.61 7.23001V11.78ZM121.88 14.21C121.841 14.6289 121.896 15.0513 122.039 15.4468C122.182 15.8424 122.411 16.2015 122.709 16.4985C123.007 16.7956 123.367 17.0232 123.763 17.1652C124.159 17.3072 124.581 17.36 125 17.32C125.847 17.3427 126.688 17.1859 127.47 16.86L127.76 18.01C126.812 18.4123 125.789 18.6067 124.76 18.58C124.164 18.615 123.567 18.5215 123.009 18.3057C122.452 18.0899 121.948 17.7569 121.531 17.3292C121.113 16.9015 120.793 16.3892 120.591 15.8269C120.389 15.2646 120.31 14.6654 120.36 14.07C120.36 11.37 121.95 9.25001 124.56 9.25001C127.48 9.25001 128.24 11.81 128.24 13.45C128.244 13.7043 128.228 13.9585 128.19 14.21H121.88ZM126.64 13.05C126.64 12.05 126.22 10.42 124.4 10.42C123.729 10.4651 123.1 10.7604 122.637 11.2475C122.174 11.7347 121.911 12.378 121.9 13.05H126.64ZM130.23 12.36C130.23 11.22 130.23 10.3 130.15 9.45001H131.6L131.69 10.98C132.01 10.43 132.475 9.97804 133.034 9.67311C133.593 9.36818 134.224 9.22186 134.86 9.25001C137.03 9.25001 138.66 11.07 138.66 13.79C138.66 17.01 136.66 18.59 134.59 18.59C134.048 18.615 133.51 18.4981 133.027 18.2508C132.545 18.0034 132.136 17.6343 131.84 17.18V22.05H130.23V12.36ZM131.84 14.75C131.837 14.972 131.86 15.1936 131.91 15.41C132.042 15.9547 132.354 16.4391 132.794 16.7855C133.235 17.1319 133.779 17.3201 134.34 17.32C136.06 17.32 137.06 15.91 137.06 13.86C137.06 12.08 136.12 10.54 134.4 10.54C133.827 10.5555 133.275 10.76 132.83 11.1217C132.385 11.4834 132.072 11.982 131.94 12.54C131.882 12.7555 131.848 12.9769 131.84 13.2V14.75ZM148.84 13.84C148.894 14.4518 148.818 15.068 148.617 15.6485C148.416 16.2289 148.096 16.7606 147.676 17.2088C147.256 17.657 146.746 18.0116 146.18 18.2496C145.614 18.4876 145.004 18.6036 144.39 18.59C143.798 18.5976 143.211 18.4813 142.666 18.2487C142.121 18.016 141.631 17.6721 141.227 17.239C140.824 16.8059 140.515 16.2931 140.32 15.7336C140.126 15.1741 140.051 14.5802 140.1 13.99C140.048 13.3799 140.125 12.7656 140.326 12.1871C140.526 11.6085 140.846 11.0786 141.265 10.6317C141.684 10.1848 142.191 9.83083 142.756 9.5928C143.32 9.35478 143.928 9.23799 144.54 9.25001C147.14 9.25001 148.87 11.11 148.87 13.84H148.84ZM141.75 13.94C141.75 15.94 142.88 17.38 144.46 17.38C146.04 17.38 147.19 15.92 147.19 13.89C147.19 12.38 146.42 10.47 144.49 10.47C142.56 10.47 141.78 12.25 141.78 13.94H141.75ZM150.89 12.24C150.89 11.18 150.89 10.24 150.82 9.45001H152.24L152.3 11.21H152.36C152.513 10.6574 152.835 10.1669 153.282 9.8079C153.729 9.44892 154.278 9.23974 154.85 9.21001C155.002 9.20512 155.153 9.22196 155.3 9.26001V10.78C155.117 10.7632 154.933 10.7632 154.75 10.78C154.196 10.8022 153.669 11.0257 153.267 11.4086C152.866 11.7915 152.618 12.3075 152.57 12.86C152.528 13.1111 152.508 13.3654 152.51 13.62V18.39H150.89V12.24ZM159.33 6.88001V9.45001H161.67V10.68H159.33V15.5C159.33 16.61 159.65 17.24 160.56 17.24C160.877 17.2463 161.193 17.2093 161.5 17.13L161.58 18.36C161.113 18.5162 160.622 18.5906 160.13 18.58C159.805 18.5982 159.48 18.5469 159.177 18.4297C158.873 18.3124 158.598 18.1319 158.37 17.9C157.884 17.2218 157.66 16.3905 157.74 15.56V10.68H156.36V9.45001H157.74V7.30001L159.33 6.88001Z" fill="#233241"/>
</g>
<defs>
<clipPath id="clip0">
<rect width="161.7" height="24" fill="white"/>
</clipPath>
</defs>
</svg>

<svg width="162" height="24" fill="none" xmlns="http://www.w3.org/2000/svg"><g clip-path="url(#clip0)"><path d="M20.79 12.41A48.571 48.571 0 019.15 23.79c-.9.61-1.42-.23-.88-.91A66.688 66.688 0 0119.91 11.5c.75-.5 1.35.24.88.91zm-4.2-4.35c.56-.78.05-1.57-.88-.91-.56.39-9.36 8.22-11 9.92-1.6-1.38-3.29-2.82-3.69-3.14a.64.64 0 00-.9.07.65.65 0 000 .82A44.415 44.415 0 004 19.54a1.07 1.07 0 001.48.23l.14-.12A67.21 67.21 0 0016.59 8.06zm-11.74 3a62 62 0 007.57-6.63 1.09 1.09 0 000-1.54l-.06-.05C12.09 2.65 9.47.35 9.18.14c-.6-.42-1.31.17-.91.89s1.12 1.86 1.56 2.55C9.46 3.91 4.52 9.5 4 10.19c-.52.69 0 1.52.88.91l-.03-.04z" fill="#FF6200"/><path d="M27.28 5.55h2.87v5.76l5.27-5.76h3.46l-5.3 5.59 5.54 7.58h-3.44l-4-5.6-1.54 1.58v4h-2.86V5.55zm18.59-.09h2.64l5.57 13.26h-3l-1.18-2.95h-5.5l-1.19 2.95h-2.92l5.58-13.26zm3 7.75l-1.72-4.27-1.73 4.27h3.45zm6.73-1a6.72 6.72 0 016.63-6.81h.19a7.09 7.09 0 015.12 1.81l-1.8 2.2A4.81 4.81 0 0062.35 8a3.94 3.94 0 00-3.74 4.1 3.93 3.93 0 003.66 4.17h.28a4.55 4.55 0 002.7-.79v-1.85h-2.88v-2.5H68v5.72a8.32 8.32 0 01-5.56 2.09 6.55 6.55 0 01-6.85-6.24 4.685 4.685 0 010-.53l.01.04zm20.55-6.75h2.64l5.58 13.26h-3l-1.19-2.95h-5.5l-1.18 2.95h-2.92l5.57-13.26zm3 7.75l-1.72-4.27-1.72 4.27h3.44zm8.15-7.66h5.94a5.15 5.15 0 013.8 1.34 4.12 4.12 0 011.11 3A4.09 4.09 0 0195.37 14l3.18 4.7h-3.34l-2.79-4.2h-2.25v4.22h-2.86L87.3 5.55zM93.07 12c1.39 0 2.19-.75 2.19-1.86 0-1.24-.85-1.88-2.25-1.88h-2.84V12h2.9zm8.74-6.4h2.86v13.12h-2.86V5.6zm9.19.51a16.56 16.56 0 013.1-.27 5.11 5.11 0 013.6 1 3.123 3.123 0 011 2.37 3.27 3.27 0 01-2.35 3.17 3.152 3.152 0 011.83 2.62 20.253 20.253 0 001 3.42h-1.67a15.987 15.987 0 01-.82-3c-.37-1.71-1-2.37-2.5-2.42h-1.52v5.4H111V6.11zm1.61 5.67h1.64c1.72 0 2.82-.94 2.82-2.37 0-1.62-1.17-2.32-2.87-2.32a6.998 6.998 0 00-1.59.14v4.55zm9.27 2.43a2.86 2.86 0 003.12 3.11 6 6 0 002.47-.46l.29 1.15a7.202 7.202 0 01-3 .57 4.175 4.175 0 01-3.229-1.25 4.16 4.16 0 01-1.171-3.26c0-2.7 1.59-4.82 4.2-4.82 2.92 0 3.68 2.56 3.68 4.2a4.6 4.6 0 01-.05.76h-6.31zm4.76-1.16c0-1-.42-2.63-2.24-2.63a2.68 2.68 0 00-2.5 2.63h4.74zm3.59-.69c0-1.14 0-2.06-.08-2.91h1.45l.09 1.53a3.486 3.486 0 013.17-1.73c2.17 0 3.8 1.82 3.8 4.54 0 3.22-2 4.8-4.07 4.8a3.113 3.113 0 01-2.75-1.41v4.87h-1.61v-9.69zm1.61 2.39a2.501 2.501 0 002.5 2.57c1.72 0 2.72-1.41 2.72-3.46 0-1.78-.94-3.32-2.66-3.32a2.6 2.6 0 00-2.46 2 2.946 2.946 0 00-.1.66v1.55zm17-.91a4.356 4.356 0 01-1.164 3.369 4.374 4.374 0 01-3.286 1.381 4.252 4.252 0 01-4.29-4.6 4.364 4.364 0 011.165-3.358 4.367 4.367 0 013.275-1.382c2.6 0 4.33 1.86 4.33 4.59h-.03zm-7.09.1c0 2 1.13 3.44 2.71 3.44s2.73-1.46 2.73-3.49c0-1.51-.77-3.42-2.7-3.42-1.93 0-2.71 1.78-2.71 3.47h-.03zm9.14-1.7c0-1.06 0-2-.07-2.79h1.42l.06 1.76h.06a2.733 2.733 0 012.49-2c.152-.005.303.012.45.05v1.52a3.007 3.007 0 00-.55 0 2.283 2.283 0 00-2.18 2.08 4.397 4.397 0 00-.06.76v4.77h-1.62v-6.15zm8.44-5.36v2.57h2.34v1.23h-2.34v4.82c0 1.11.32 1.74 1.23 1.74.317.006.633-.03.94-.11l.08 1.23c-.467.156-.958.23-1.45.22a2.288 2.288 0 01-1.76-.68 3.45 3.45 0 01-.63-2.34v-4.88h-1.38V9.45h1.38V7.3l1.59-.42z" fill="#233241"/></g><defs><clipPath id="clip0"><path fill="#fff" d="M0 0h161.7v24H0z"/></clipPath></defs></svg>
